X:467
T:Mursheen Durkin
D:Scottish Country Party, Mickie Ainsworth
Z:Nigel Gatherer
M:2/4
L:1/8
K:D
D/E/ | FF ED  | EA A>B | cA GE | ED D>E |
       FF ED  | EA A>B | cA Bc | 2d d  ||
A    | d2 e>d | cA A>B | cA GE | ED D>E |
       FF ED  | EA A>B | cA GE | D3    |]
<end>
<start>
